X: 305841
T: COTILLION No. 38. MASTER HUMPHREY'S SETT tune 1
C:
%R: reel
B: Elias Howe "The Musician's Companion" Part 3 1844 p.152 #1
S: http://imslp.org/wiki/The_Musician's_Companion_(Howe,_Elias)
Z: 2015 John Chambers <jc:trillian.mit.edu>
M: 2/4
L: 1/16
K: G
% - - - - - - - - - - - - - - - - - - - - - - - - -
D2 |\
G2G2 A2A2 | B2B2 G2AB | c2c2 B2B2 | ABcA GFED |\
G2G2 A2A2 | B2B2 G2AB | c2c2 B2B2 | A2AB G2 H|]
(Bc) |\
dBcd e2e2 | c2c2 dedc | B2d2 c2B2 | ABcA GFED |\
dBcd e2e2 | c2c2 dedc | B2d2 c2B2 | A2^c2 d=cB"^D.C."A |]
A2 |\
d2d2 e2e2 | f2f2 d2ef | g2g2 f2f2 | efge dcBA |\
d2d2 e2e2 | f2f2 d2ef | g2g2 f2f2 | edef dcB"^D.C."A |]
B2B2 B4 | dcBc d4 | (B2e2) (e2d2) | (d2c2) (c2B2) |\
A2A2 A3A | cBAB c2dc | (A2d2) (d2c2) | (c2B2) (B2"^D.C."A2) |]
% - - - - - - - - - - Dance description - - - - - - - - - -
%%begintext align
%% First 4 lead to right,
%% chassa out and form lines across the hall,
%% all right and left across the hall,
%% ladies all chain across the hall,
%% all forward and back,
%% swing partners to place.
%% Side couples the same.
%%endtext
% - - - - - - - - - - - - - - - - - - - - - - - - -
%%sep 1 1 300


